src/assets/HuskieBot.svg

<?xml version="1.0" encoding="UTF-8"?>
<svg width="17px" height="23px" viewBox="0 0 17 23" version="1.1" xmlns="http://www.w3.org/2000/svg" xmlns:xlink="http://www.w3.org/1999/xlink">
    <g id="Page-1" stroke="none" stroke-width="1" fill="none" fill-rule="evenodd">
        <g id="Blario-Factory" transform="translate(-55.000000, -77.000000)">
            <g id="HuskieBot" transform="translate(55.500000, 78.000000)">
                <path d="M3.55271368e-15,4.5 C3.55271368e-15,6.47784759 0.280209454,10.4623306 0.840628362,16.4534489 L0.840623505,16.4534494 C0.904788954,17.1394055 1.24918776,17.7684769 1.79249469,18.1921167 C4.19318615,20.0640389 6.24278859,21 7.94130199,21 C9.63880212,21 11.6869725,20.0651553 14.0858131,18.1954659 L14.0858027,18.1954524 C14.6316426,17.7700173 14.9767088,17.1373512 15.03884,16.4480936 C15.5205761,11.1039142 15.7999622,7.25214393 15.8769983,4.8927827 C16,1.1256471 3.55271368e-15,1.3637234 3.55271368e-15,4.5 Z" id="Face" stroke="#434040" stroke-width="0.5" fill="#FBEFEA" stroke-linecap="square"></path>
                <g id="Mouth" transform="translate(2.500000, 14.000000)" stroke="#434040" stroke-width="0.5">
                    <path d="M0.590230211,0.25 C0.576459996,0.25 0.56271332,0.25113771 0.549130464,0.253401519 C0.412937884,0.276100282 0.320932967,0.404907166 0.34363173,0.541099747 L0.676965063,2.54109975 C0.697056229,2.66164674 0.801353756,2.75 0.923563544,2.75 L10.0764365,2.75 C10.1986462,2.75 10.3029438,2.66164674 10.3230349,2.54109975 L10.6563683,0.541099747 C10.6586321,0.52751689 10.6597698,0.513770215 10.6597698,0.5 C10.6597698,0.361928813 10.547841,0.25 10.4097698,0.25 L0.590230211,0.25 Z" id="Lips" fill="#FFFFFF"></path>
                    <path d="M10.4,1.5 L0.6,1.5" id="Teeth" stroke-linecap="square"></path>
                    <path d="M2.4,0.5 L2.4,2.5" id="Teeth" stroke-linecap="square"></path>
                    <path d="M4.5,0.5 L4.5,2.5" id="Teeth" stroke-linecap="square"></path>
                    <path d="M6.6,0.5 L6.6,2.5" id="Teeth" stroke-linecap="square"></path>
                    <path d="M8.7,0.5 L8.7,2.5" id="Teeth" stroke-linecap="square"></path>
                </g>
                <path d="M8.5,11 C8.83333333,11.3333333 9,11.6666667 9,12 C9,12.3333333 8.5,12.5 7.5,12.5" id="Nose" stroke="#434040" stroke-width="0.5" stroke-linecap="round"></path>
                <g id="Eyes" transform="translate(3.500000, 7.000000)" fill="#152450" stroke="#152450">
                    <circle id="Right-Eye" cx="8" cy="1" r="0.2"></circle>
                    <circle id="Left-Eye" cx="1" cy="1" r="0.2"></circle>
                </g>
                <g id="Glasses" transform="translate(1.500000, 5.000000)" stroke="#000000">
                    <path d="M5.6104968,1.35 L0.556433137,1.35 C0.548427964,1.35014247 0.548427964,1.35014247 0.540453169,1.35085363 C0.458081901,1.35967912 0.398461271,1.4336087 0.407286764,1.51597997 L0.680851039,4.06924653 C0.716239331,4.39953726 0.994970871,4.65 1.32715199,4.65 L4.67284801,4.65 C5.00502913,4.65 5.28376067,4.39953726 5.31914896,4.06924653 L5.6104968,1.35 Z" id="Left-Lens" stroke-width="0.7"></path>
                    <path d="M7.3895032,1.35 L7.68085104,4.06924653 C7.71623933,4.39953726 7.99497087,4.65 8.32715199,4.65 L11.672848,4.65 C12.0050291,4.65 12.2837607,4.39953726 12.319149,4.06924653 L12.5927132,1.51597997 C12.5934244,1.50800517 12.5934244,1.50800517 12.5935669,1.5 C12.5935669,1.41715729 12.5264096,1.35 12.4435669,1.35 L7.3895032,1.35 Z" id="Right-Lens" stroke-width="0.7"></path>
                    <path d="M1.46153846,1.3 L11.5,1.3" id="Frame" stroke-width="0.6" stroke-linecap="square"></path>
                </g>
                <path d="M12.5,0 C9.16002368,0.0648143007 6.97606111,0.231480967 5.94811229,0.5 C2.11343071,1.50168896 0.361597914,3.18577364 0.252571911,3.76450347 C0.248600338,3.78558531 0.252571911,3.79954856 0.252571911,3.81712227 C0.726672637,3.31712227 6.42221302,3 9.7409181,3.5 C11.2893793,3.73329298 12.9703458,4 14.4819254,4 C15.4301268,4 13.4595319,4 15.3559348,4 C14.8818341,3 15.0650692,3.00700196 14.3397897,2 C14.0209488,1.55731082 13.4076856,0.890644152 12.5,0 Z" id="Hair" stroke="#000000" fill="#000000" stroke-linecap="square"></path>
            </g>
        </g>
    </g>
</svg>

<svg height="23" viewBox="0 0 17 23" width="17" xmlns="http://www.w3.org/2000/svg"><g fill="none" fill-rule="evenodd" transform="translate(.5 1)"><g stroke="#434040" stroke-width=".5"><path d="m0 4.5c0 1.97784759.28020945 5.9623306.84062836 11.9534489l-.00000485.0000005c.06416544.6859561.40856425 1.3150275.95187118 1.7386673 2.40069146 1.8719222 4.4502939 2.8078833 6.1488073 2.8078833 1.69750013 0 3.74567051-.9348447 6.14451111-2.8045341l-.0000104-.0000135c.5458399-.4254351.8909061-1.0581012.9530373-1.7473588.4817361-5.3441794.7611222-9.19594967.8381583-11.5553109.1230017-3.7671356-15.8769983-3.5290593-15.8769983-.3927827z" fill="#fbefea" stroke-linecap="square"/><g transform="translate(2.5 14)"><path d="m.59023021.25c-.01377021 0-.02751689.00113771-.04109975.00340152-.13619258.02269876-.22819749.15150565-.20549873.28769823l.33333333 2c.02009117.12054699.1243887.20890025.24659848.20890025h9.15287296c.1222097 0 .2265073-.08835326.2465984-.20890025l.3333334-2c.0022638-.01358286.0034015-.02732953.0034015-.04109975 0-.13807119-.1119288-.25-.25-.25z" fill="#fff"/><g stroke-linecap="square"><path d="m10.4 1.5h-9.8"/><path d="m2.4.5v2"/><path d="m4.5.5v2"/><path d="m6.6.5v2"/><path d="m8.7.5v2"/></g></g><path d="m8.5 11c.33333333.3333333.5.6666667.5 1s-.5.5-1.5.5" stroke-linecap="round"/></g><g fill="#152450" stroke="#152450"><circle cx="11.5" cy="8" r=".2"/><circle cx="4.5" cy="8" r=".2"/></g><g stroke="#000"><g transform="translate(1.5 5)"><path d="m5.6104968 1.35h-5.05406366c-.00800518.00014247-.00800518.00014247-.01597997.00085363-.08237127.00882549-.1419919.08275507-.13316641.16512634l.27356428 2.55326656c.03538829.33029073.31411983.58075347.64630095.58075347h3.34569602c.33218112 0 .61091266-.25046274.64630095-.58075347z" stroke-width=".7"/><path d="m7.3895032 1.35.29134784 2.71924653c.03538829.33029073.31411983.58075347.64630095.58075347h3.34569601c.3321811 0 .6109127-.25046274.646301-.58075347l.2735642-2.55326656c.0007112-.0079748.0007112-.0079748.0008537-.01597997 0-.08284271-.0671573-.15-.15-.15z" stroke-width=".7"/><path d="m1.46153846 1.3h10.03846154" stroke-linecap="square" stroke-width=".6"/></g><path d="m12.5 0c-3.33997632.0648143-5.52393889.23148097-6.55188771.5-3.83468158 1.00168896-5.58651438 2.68577364-5.69554038 3.26450347-.00397157.02108184 0 .03504509 0 .0526188.47410073-.5 6.16964111-.81712227 9.48834619-.31712227 1.5484612.23329298 3.2294277.5 4.7410073.5h.8740094c-.4741007-1-.2908656-.99299804-1.0161451-2-.3188409-.44268918-.9321041-1.10935585-1.8397897-2z" fill="#000" stroke-linecap="square"/></g></g></svg>
